!!!OTL: "Die Baeuerin und der Ritter" KATHRINCHEN ICH DICH GRUESSE
!!!ARE: Europa, Mitteleuropa, Deutschland, Niederrhein
!!!SCT: Z1113
!!!YEM: Copyright 1995, estate of Helmut Schaffrath.
**kern
*ICvox
*Ivox
!! Mixed meters:  2/4; 3/4
*M2/4
*k[f#c#]
*D:
{8A
=1
8d
8A
8B
8c#
=2
4d
8d}
{8f#
=3
8.e
16d
8c#
8B
=4
4A
8r}
{8A
=5
8d
8A
8B
8c#
=6
4d
8d}
{8f#
=7
8.e
16d
8c#
8B
=8
4A
8r}
{8e
=9
8e
8d
8c#
8B
=10
8d
8c#
8B}
{8e
=11
8e
8A
8B
8G#
=12
4A
8r}
{8A
=13
8A
8d
8d
8e
=14
8f#
8d
8r
8e
=15
8f#
4d}
{8d
=16
8B
8e
8d
8c#
=17
4d
4r}
=18
{4d
=19
*M3/4
4cn
8d
8B
4G
=20
*M2/4
8e
8g
8f#
8e}
=21
{4d
=22
*M3/4
4cn
8d
8B
4G
=23
*M2/4
8e
8g
8f#
8e}
=24
{4d
=25
*M3/4
4A
4A
8c#
8A
=26
*M2/4
2d}
=27
{8d
8B
=28
*M3/4
4A
4A
8c#
8A
=29
*M2/4
2d}
=30
{8d
8B
=31
*M3/4
4d
4B
4G
=32
*M2/4
4cn
4A}
=33
{8d
8B
=34
*M3/4
4d
4B
4G
=35
*M2/4
4cn
4A}
=36
{8d
8B
=37
*M3/4
4e
4e
4e
=38
*M2/4
4.d
8cn}
=39
{4B
=40
*M3/4
8d
8cn
4B
4A
=41
2G}
==
!!!AGN: Romanze, Ballade
!! Moduliert in T18 nach G
!!!ONB: ESAC (Essen Associative Code) Database: ZUCCAL
!!!AMT: irregular
!!!AIN: vox
!!!EED: Helmut Schaffrath
!!!EEV: 1.0
*-
